X: 30378
T: Old Red Lion, The
R: reel
M: 4/4
K: Dmajor
D2 DE FDFG|A2 AB AFED|(3EEE BE dEBE|(3EEE BE dBAF|D2 DE F2 FG|A2 AB AFED|
(3EEE BE dEBc|dBAF D2 DA,|D2 DE FDFG|A2 AB AFED|(3EEE BE dEBE|(3EEE BE dBAF|
D2 DE F2 FG|A2 AB AFED|(3EEE BE dEBc|dBAF D2 FA|d2 dc dAFA|F/G/A dc dAFA|
G/A/B ed edBd|cAeA fAeA|d2 dc dAFA|dfec dAFG|(3AAA FA DAFA|G/F/E CE DDFA|
d2 dc dAFA|F/G/A dc dAFA|G/A/B ed edBd|cAeA fAeA|d2 dc dDFA|(3=ccc dc B^cdB|
(3AAA FA DAFA|G/F/ECE D2 DA,:|

